X: 1
T: Bunch Of Green Rushes, The
M: 4/4
L: 1/8
R: reel
K: Dmix
d|:cAGE ~=F3d|cAGc AddB|cAGE =F2ag|^fdec AddB:|
|:AddB cAGE|~=FGAc {d}cAGc|AddB cAGA|1 cdeg {a}gedc:|2 cdeg {a}gecA||
|d2^fd adfd|c2ec gcec|d2fd adfd|cAGc Addc|
|d2fd adfd|c2cB cdeg|gf (3gfe fded|cAGc Add2||
